X:33
T:Planxty Irwin
M:6/8
L:1/8
K:G % transposed from C
e/2f/2|g2f efg|d2c BAG|c2A Bcd|
F2G A2d|g2f efg|d2c BAG|c2A Bcd|G3G2||
d|gag gag|aba afd|bc'b abg|f2e d3/2e/2f|
g2f efg|d2c BAG|c2A Bcd|G3G2|]
